!!!COM: Bartok, Bela
!!!OTL: Dance in 3/4 Time
!!!ONM: 119
!!!OPR: Mikrokosmos, Vol. IV
!! Boosey & Hawkes Ltd. (London) 1955, copyright 1940 pp.44-45
**kern	**kern
*M3/4	*M3/4
=1	=1
{4EE#	{4.een
4GG#'}	.
.	8ddn
4AA#'	8cc#
.	8an
=2	=2
{4BB#	4g#
4C#'}	4a'}
4D#'	4f#'
=3	=3
{4E	4e'
4G#}	4r
4A#'	4r
=4	=4
4B'	{8d#
.	8c#
4r	8d#
.	8e
4r	8f#
.	8g#
=5	=5
{8C#	2a
8BB	.
8C#	.
8D#	.
8E	4e}
8G#	.
=6	=6
2F#	{8f#
.	8d#
.	8f#
.	8g#
4C#}	8a
.	8b
=7	=7
{8C##	2cc#
8AA#	.
8C##	.
8D##	.
8E#	4g#}
8G#	.
=8	=8
2F#	{8a
.	8e
.	8a
.	8b
4C#}	8cc#
.	8dd#
=9	=9
{4Cn	4ee
4E'}	4ccn'}
4Fn'	4a'
=10	=10
{4.B	2.r
8A#	.
8G#	.
8E}	.
=11	=11
{4D#	{4.b
4F#'}	.
.	8an
4BB'	8b
.	8ddn}
=12	=12
{4.B	{8b
.	8a
.	4b'}
8A	.
8Gn	4ccn'
8E}	.
=13	=13
{4Dn	{4.b
4Fn'}	.
.	8a
4BB'	8b
.	8ccn}
=14	=14
{8E	[{2.ddn^
8G#	.
8A#	.
8B	.
8c#	.
8d#	.
=15	=15
8e#	2dd]
8g#	.
8a#	.
8b	.
8b#	4dd#}
8f#}	.
=16	=16
{4cc#	{4.ee
4e#'}	.
.	8ddn
4f#'	8ccn
.	8a}
=17	=17
{4G#	{4.ee
4B#'}	.
.	8dd#
4c#'	8cc#
.	8gn}
=18	=18
{4D#	{8ee#
.	8dd#
4E#	4cc#
4F#}	4f#}
=19	=19
[{2.A	2.r
=20	=20
8A]	{4a
8B	.
8A	4cc#'}
8Gn	.
8F#	4dd#'
8Dn	.
=21	=21
4C#	4ee'
4Dn'}	4ffn'
4BB'	4ggn'
=22	=22
{4AA#^	{4.aan^
4D#'}	.
.	8ff#}
4F##'	{8ff#
.	8cc#}
=23	=23
2A#~^	4r
.	2an~^
[4d#~^	.
=24	=24
4d#]	2f#~^
2f##~^	.
.	4c#~^
=25	=25
[2.e#	4r
.	8r
.	{8f#
.	8d#
.	8f#
=26	=26
2.e#_	4.d#
.	8f#
.	8d#
.	8f#
=27	=27
4e#]	8d#
.	8f#
4r	4d#
4r	8f#}
.	8r
=28 ;	=28 ;
{8EE#	{8een
8GG#	8ddn
8AA#	8cc#
8BB#	8a
8C##	8g#
8D#	8f#
=29	=29
4E'}	4r
4r	4e'}
4r	4r
==	==
*-	*-
